code/src/estate/graph/minusSign.svg

<svg width="30" height="30" xmlns="http://www.w3.org/2000/svg" fill="#000000">

 <g>
  <title>Layer 1</title>
  <path id="svg_1" d="m15,3c-6.627,0 -12,5.373 -12,12c0,6.627 5.373,12 12,12s12,-5.373 12,-12c0,-6.627 -5.373,-12 -12,-12zm6,13l-5,0l-2,0l-5,0c-0.552,0 -1,-0.447 -1,-1s0.448,-1 1,-1l5,0l2,0l5,0c0.552,0 1,0.447 1,1s-0.448,1 -1,1z"/>
 </g>
</svg>

<?xml version="1.0" encoding="UTF-8" standalone="no"?>
<svg
   width="32"
   height="32"
   fill="#000000"
   version="1.1"
   id="svg110"
   sodipodi:docname="minusSign.svg"
   inkscape:version="1.1 (c68e22c387, 2021-05-23)"
   xmlns:inkscape="http://www.inkscape.org/namespaces/inkscape"
   xmlns:sodipodi="http://sodipodi.sourceforge.net/DTD/sodipodi-0.dtd"
   xmlns="http://www.w3.org/2000/svg"
   xmlns:svg="http://www.w3.org/2000/svg">
  <defs
     id="defs114" />
  <sodipodi:namedview
     id="namedview112"
     pagecolor="#ffffff"
     bordercolor="#666666"
     borderopacity="1.0"
     inkscape:pageshadow="2"
     inkscape:pageopacity="0.0"
     inkscape:pagecheckerboard="0"
     showgrid="false"
     inkscape:zoom="29.066667"
     inkscape:cx="14.982798"
     inkscape:cy="9.478211"
     inkscape:window-width="1920"
     inkscape:window-height="1057"
     inkscape:window-x="1016"
     inkscape:window-y="-8"
     inkscape:window-maximized="1"
     inkscape:current-layer="svg110" />
  <g
     id="g108"
     transform="matrix(1.3333333,0,0,1.3333333,-4,-4)">
    <title
       id="title105">Layer 1</title>
    <path
       id="svg_1"
       d="M 15,3 C 8.373,3 3,8.373 3,15 3,21.627 8.373,27 15,27 21.627,27 27,21.627 27,15 27,8.373 21.627,3 15,3 Z m 6,13 H 16 14 9 C 8.448,16 8,15.553 8,15 8,14.447 8.448,14 9,14 h 5 2 5 c 0.552,0 1,0.447 1,1 0,0.553 -0.448,1 -1,1 z" />
  </g>
</svg>
